icons/plexis/48/qcomicbook.svg

<svg viewBox="0 0 48 48" xmlns="http://www.w3.org/2000/svg" xmlns:xlink="http://www.w3.org/1999/xlink">
  <linearGradient id="a" gradientTransform="matrix(0 -1 1 0 0 48)" gradientUnits="userSpaceOnUse" x1="1" x2="47">
    <stop offset="0" stop-color="#353535"/>
    <stop offset="1" stop-color="#3f3f3f"/>
  </linearGradient>
  <path d="m1 24c0-22.703.297-23 23-23 22.703 0 23 .297 23 23 0 22.703-.297 23-23 23-22.703 0-23-.297-23-23z" fill="url(#a)"/>
  <path d="m25 12a13 13 0 0 0-13 13 13 13 0 0 0  1.773 6.521l-1.252 5.629 5.479-1.212a13 13 0 0 0 7 2.062 13 13 0 0 0  13-13 13 13 0 0 0-13-13" opacity=".1"/>
  <path d="m24 11a13 13 0 0 0-13 13 13 13 0 0 0  1.773 6.521l-1.252 5.629 5.479-1.212a13 13 0 0 0 7 2.062 13 13 0 0 0  13-13 13 13 0 0 0-13-13z" fill="#beacac"/>
</svg>

<svg xmlns="http://www.w3.org/2000/svg" viewBox="0 0 48 48">
 <defs>
  <linearGradient id="linearGradient4180" x1="1" x2="47" gradientUnits="userSpaceOnUse" gradientTransform="matrix(0,-1,1,0,0,48)">
   <stop style="stop-color:#353535;stop-opacity:1"/>
   <stop offset="1" style="stop-color:#3f3f3f;stop-opacity:1"/>
  </linearGradient>
 </defs>
 
 
 
 <path d="M 1,24 C 1,1.297 1.297,1 24,1 46.703,1 47,1.297 47,24 47,46.703 46.703,47 24,47 1.297,47 1,46.703 1,24 Z" style="fill:url(#linearGradient4180);fill-opacity:1"/>
 
 <path d="m 25 12 a 13 13 0 0 0 -13 13 13 13 0 0 0 1.773 6.521 L 12.521 37.15 18 35.938 A 13 13 0 0 0 25 38 13 13 0 0 0 38 25 13 13 0 0 0 25 12" style="fill:#000;opacity:0.1;fill-opacity:1"/>
 <path d="M 24 11 A 13 13 0 0 0 11 24 A 13 13 0 0 0 12.773 30.521 L 11.521 36.15 L 17 34.938 A 13 13 0 0 0 24 37 A 13 13 0 0 0 37 24 A 13 13 0 0 0 24 11 z" style="fill:#beacac;fill-opacity:1"/>
</svg>
